X: 995
T: Miners of Wicklow, The
T: Na Tocalaide Ua Cill-Mantain
R:double jig
C:"collected by McFadden"
S:995 O'Neill's Music of Ireland
B:O'Neill's 995
Z:Transcribed by Robert Thorpe (thorpe@skep.com)
Z:ABCMUS 1.0
M:6/8
K:D
D3/2-E/-F/-G/ ABc|dcB AGF|GBF EFE|FAF DED|
|D3/2-E/-F/-G/ ABc|dcB AFA[1 Bcd edc|dAG FED:|[2 Bcd efg|fdd d2||
g|fdd fdf|ecA efg|fdd def|{a}gfg e.fg|
|f/-g/-af gab|afd cBA|[1 Bcd efg|fdd d2:|
[2 Bcd edc|dAG FED||


